svg/color/wdoge.svg

<svg width="64" height="65" viewBox="0 0 64 65" fill="none" xmlns="http://www.w3.org/2000/svg">
<rect y="0.303711" width="64" height="64" rx="32" fill="#F3CE92"/>
<rect x="0.5" y="0.803711" width="63" height="63" rx="31.5" stroke="#070B14" stroke-opacity="0.15"/>
<path d="M32 60.5836C16.4062 60.5836 3.72009 47.8968 3.72009 32.3037C3.72009 16.7106 16.4062 4.0238 32 4.0238C47.5938 4.0238 60.2799 16.7106 60.2799 32.3037C60.2799 47.8968 47.5931 60.5836 32 60.5836ZM32 6.3022C17.6627 6.3022 5.99849 17.9664 5.99849 32.3037C5.99849 46.6411 17.6627 58.3052 32 58.3052C46.3374 58.3052 58.0015 46.6411 58.0015 32.3037C58.0015 17.9664 46.3374 6.3022 32 6.3022Z" fill="#282425"/>
<path d="M33.8512 29.9561H27.1171H22.216H18.3013V31.1882V32.3038V33.4195V34.6516H22.216H27.1171H33.8512H33.9402V32.3038V29.9561H33.8512Z" fill="#282425"/>
<path d="M31.5176 16.5363H22.2161V26.8032H27.1171V21.2763H32.0768C35.2276 21.2763 37.919 22.4337 39.8599 24.6238C41.6411 26.6334 42.622 29.3605 42.622 32.3038C42.622 35.2472 41.6411 37.9742 39.8599 39.9838C37.919 42.174 35.2269 43.3314 32.0768 43.3314H27.1171V37.8045H22.2161V48.0714H31.5176C41.3911 48.0714 47.2852 42.1767 47.2852 32.3038C47.2852 22.431 41.3905 16.5363 31.5176 16.5363Z" fill="#282425"/>
</svg>

<svg xmlns="http://www.w3.org/2000/svg" width="64" height="65" fill="none" viewBox="0 0 64 65"><rect width="64" height="64" y=".304" fill="#F3CE92" rx="32"/><rect width="63" height="63" x=".5" y=".804" stroke="#070B14" stroke-opacity=".15" rx="31.5"/><path fill="#282425" d="M32 60.584c-15.594 0-28.28-12.687-28.28-28.28S16.406 4.024 32 4.024s28.28 12.687 28.28 28.28S47.593 60.584 32 60.584m0-54.282c-14.337 0-26.002 11.664-26.002 26.002S17.663 58.305 32 58.305s26.002-11.664 26.002-26.001S46.337 6.302 32 6.302"/><path fill="#282425" d="M33.851 29.956h-15.55v4.696h15.64v-4.696z"/><path fill="#282425" d="M31.518 16.536h-9.302v10.267h4.901v-5.527h4.96c3.15 0 5.842 1.158 7.783 3.348 1.781 2.01 2.762 4.736 2.762 7.68s-.98 5.67-2.762 7.68c-1.941 2.19-4.633 3.347-7.783 3.347h-4.96v-5.527h-4.9v10.267h9.3c9.874 0 15.768-5.894 15.768-15.767s-5.894-15.768-15.767-15.768"/></svg>
